X: 10
T: The Lark In The Morning
R: jig
M: 6/8
L: 1/8
K: Dmaj
|: u d/B/ |AFA AFA | BGB BdB | AFA Ade | fed BdB |
AFA AFA | BAB BAB | def afe | fdB B2 :|
|: u A |def afa | baf afe | def afe | fdB BAB |
def afa | bag agf | gfg fef | dBB B2 :|
|: A |def ({g/}f)ef | fef fef | def fef | edB ({d/}B)AB |
def fef | fef fef | baf fef | dBB B2 :|


Tune 62	Setting 25964

